other/myfeedlexiconrabbits.svg

<?xml version="1.0" encoding="UTF-8" standalone="no"?>
<svg
   viewBox="0 0 48 48"
   version="1.1"
   id="svg8"
   sodipodi:docname="meinfutterlexicon.svg"
   inkscape:version="1.1 (c68e22c387, 2021-05-23)"
   xmlns:inkscape="http://www.inkscape.org/namespaces/inkscape"
   xmlns:sodipodi="http://sodipodi.sourceforge.net/DTD/sodipodi-0.dtd"
   xmlns="http://www.w3.org/2000/svg"
   xmlns:svg="http://www.w3.org/2000/svg">
  <sodipodi:namedview
     id="namedview10"
     pagecolor="#4a4a4a"
     bordercolor="#666666"
     borderopacity="1.0"
     inkscape:pageshadow="2"
     inkscape:pageopacity="0"
     inkscape:pagecheckerboard="true"
     showgrid="false"
     inkscape:zoom="15.6875"
     inkscape:cx="10.741036"
     inkscape:cy="26.868526"
     inkscape:window-width="2024"
     inkscape:window-height="1387"
     inkscape:window-x="1812"
     inkscape:window-y="310"
     inkscape:window-maximized="0"
     inkscape:current-layer="svg8"
     inkscape:snap-intersection-paths="false"
     inkscape:object-paths="true"
     inkscape:object-nodes="true"
     inkscape:snap-bbox="false"
     inkscape:snap-midpoints="false"
     inkscape:snap-smooth-nodes="false" />
  <defs
     id="defs4">
    <style
       id="style2">.a{fill:none;stroke:#fff;stroke-linecap:round;stroke-linejoin:round;}</style>
  </defs>
  <path
     style="font-variation-settings:normal;opacity:1;fill:none;fill-opacity:1;stroke:#ffffff;stroke-width:1;stroke-linecap:round;stroke-linejoin:round;stroke-miterlimit:4;stroke-dasharray:none;stroke-dashoffset:0;stroke-opacity:1;stop-color:#000000;stop-opacity:1"
     d="M 12.115422,18.613675 7.4128052,9.554221 C 7.1031709,8.9577196 7.3257228,8.1527851 7.6202736,7.5486932 7.998968,6.772032 8.6987641,6.1035156 9.4874885,5.7506338 10.331533,5.3730017 11.380298,5.2396442 12.253733,5.5431655 c 0.739703,0.2570479 1.705977,0.8078354 1.728905,1.590591 0,0 -0.163745,11.0240455 0,11.0649825 z"
     id="path867"
     sodipodi:nodetypes="csaaascc" />
  <path
     style="font-variation-settings:normal;opacity:1;fill:none;fill-opacity:1;stroke:#ffffff;stroke-width:1;stroke-linecap:round;stroke-linejoin:round;stroke-miterlimit:4;stroke-dasharray:none;stroke-dashoffset:0;stroke-opacity:1;stop-color:#000000;stop-opacity:1"
     d="m 16.333946,18.129582 c 0,0 1.301359,-8.202519 1.798059,-10.3734202 0.192727,-0.8423382 1.086768,-1.5648603 1.936372,-1.7289034 1.39617,-0.2695751 3.319495,0.6224052 4.011057,1.4522787 0.691561,0.8298737 0.91264,1.5972144 0.484093,2.4204641 -1.647801,3.1654568 -6.293208,8.4370488 -6.293208,8.4370488 z"
     id="path869"
     sodipodi:nodetypes="csasscc" />
  <path
     style="font-variation-settings:normal;opacity:1;fill:none;fill-opacity:1;stroke:#ffffff;stroke-width:1;stroke-linecap:round;stroke-linejoin:round;stroke-miterlimit:4;stroke-dasharray:none;stroke-dashoffset:0;stroke-opacity:1;stop-color:#000000;stop-opacity:1"
     d="M 38.602222,42.628139 H 15.642385 l 0.276625,-8.454341 c 0,0 -0.693683,-0.128447 -1.037343,-0.207468 C 13.187026,33.576667 11.245097,33.667446 9.8332707,32.652365 8.1564932,31.446789 7.011366,29.45155 6.4446193,27.465654 c -0.2784225,-0.9756 -0.184421,-2.060519 0.069157,-3.04287 0.2731766,-1.05828 0.8550528,-2.038236 1.521435,-2.904558 0.6863873,-0.89233 1.5342857,-1.686571 2.4896207,-2.282152 0.483143,-0.301204 1.03363,-0.5043 1.59059,-0.622399 2.009034,-0.426005 4.101797,-0.326493 6.154897,-0.27663 0.740681,0.01799 1.478566,0.109764 2.212995,0.207468 2.5508,0.339346 5.167128,0.496709 7.607176,1.313965 1.671716,0.559917 3.308865,1.340837 4.702615,2.420466 1.12296,0.869872 2.100976,1.965316 2.835401,3.181181 0.916498,1.517296 1.427009,3.262162 1.867215,4.979242 0.642011,2.504238 0.921609,5.097728 1.106501,7.67633 0.107575,1.500296 0,4.512442 0,4.512442 z"
     id="path871"
     sodipodi:nodetypes="cccaaaaaaaaaaaaaac" />
  <path
     style="font-variation-settings:normal;opacity:1;fill:none;fill-opacity:1;stroke:#ffffff;stroke-width:1;stroke-linecap:round;stroke-linejoin:round;stroke-miterlimit:4;stroke-dasharray:none;stroke-dashoffset:0;stroke-opacity:1;stop-color:#000000;stop-opacity:1"
     d="m 38.623579,41.896245 c 0,0 1.418375,-0.231485 1.98417,-0.633937 0.469617,-0.334039 0.917198,-0.819482 1.037342,-1.383122 0.216842,-1.017302 -0.02451,-2.244766 -0.691561,-3.04287 -0.593459,-0.710051 -2.554999,-1.085947 -2.554999,-1.085947"
     id="path873"
     sodipodi:nodetypes="caaac" />
</svg>

<svg xmlns="http://www.w3.org/2000/svg" viewBox="0 0 48 48"><defs><style>.a{fill:none;stroke:#fff;stroke-linecap:round;stroke-linejoin:round;}</style></defs><path class="a" d="M12.1166,18.6117,7.414,9.5522a2.3688,2.3688,0,0,1,.2075-2.0055,3.9576,3.9576,0,0,1,4.6334-2.0055c.74.257,1.706.8078,1.7289,1.5906,0,0-.1637,11.024,0,11.0649Z"/><path class="a" d="M16.3352,18.1276s1.3013-8.2025,1.798-10.3734A2.5573,2.5573,0,0,1,20.07,6.0253a4.99,4.99,0,0,1,4.011,1.4522,2.05,2.05,0,0,1,.4841,2.42c-1.6478,3.1655-6.2932,8.4371-6.2932,8.4371Z"/><path class="a" d="M38.6034,42.6262h-22.96l.2766-8.4544s-.6937-.1284-1.0373-.2075c-1.6947-.39-3.6366-.2988-5.0484-1.3139a9.69,9.69,0,0,1-3.3887-5.1867,5.9073,5.9073,0,0,1,.0692-3.0429,8.2762,8.2762,0,0,1,1.5214-2.9046,9.57,9.57,0,0,1,2.49-2.2821,4.9642,4.9642,0,0,1,1.5906-.6224,26.5938,26.5938,0,0,1,6.1549-.2766,20.59,20.59,0,0,1,2.213.2074,40.6522,40.6522,0,0,1,7.6072,1.314,15.9307,15.9307,0,0,1,4.7026,2.4205A11.7309,11.7309,0,0,1,35.63,25.4581a18.3608,18.3608,0,0,1,1.8672,4.9793,43.3877,43.3877,0,0,1,1.1065,7.6763C38.711,39.614,38.6034,42.6262,38.6034,42.6262Z"/><path class="a" d="M38.6248,41.8943a6.5043,6.5043,0,0,0,1.9842-.634,2.4656,2.4656,0,0,0,1.0373-1.3831,3.7356,3.7356,0,0,0-.6916-3.0429A5.8827,5.8827,0,0,0,38.4,35.7484"/></svg>
